X:45
T: IM ARGAEU SIND ZWEI LIEBI
N: Z0046
O: Europa, Mitteleuropa, Schweiz
R: Sagen - Lied, Romanze
M: 2/4
L: 1/16
K: G
GA | B2B2B2AB | c2A2z2
AB | c2c2c2Bc | d2B2z2
ce | d2BBc2A2 | BABcB2
ce | d2BBc2A2 | B4z2

